X: 1223
T: The Chorus Reel
M:C|
L:1/8
R:Reel
B:O'Neill's 1223
N:Collected by Kennedy
Z:Transcribed by Trish O'Neil
K:D
(dB) \
| A>D (3DDD AGFG | A>D (3DDDD2dB | A>D (3DDD AGFG | (3EFE =cAG2 :|
|| (FE) \
| DddB ABAF | DddBA2(FE) | DddB ABAF | (3EFE =cAG2(FE) |
| DddB ABAF | DddBA2(Bc) | dBcA BGAF | (3EFE =cAG2 |
|: (eg) \
| (3fgf dg (3fgf dg | (3fgf df gbag | (3fgf dg (3fgf df |1 e^def gfge :|2 e^defg2 |
|: z(g | f)dec dcdB | AFDFA2(Bc) | dBcA BGAF | (3EFE =cAG2 :|


